X:1
T:Meroe, LM
T:Meroe, LM
T:William Batchelder Bradbury, 1847
T:Public Domain Courtesy of the Cyber Hymnal™
C:William Batchelder Bradbury, 1847
Z:Public Domain
Z:Courtesy of the Cyber Hymnal™
%%score ( 1 2 ) ( 3 4 )
L:1/8
Q:1/4=135
M:4/4
K:G
V:1 treble 
V:2 treble 
V:3 bass 
V:4 bass 
V:1
 [DG]4 [DG]2 [DG]2 | [DF]4 [DG]4 | [EG]4 (G2 F2) | [DG]8 | ([EG]3 [FA]) [GB]2 [GB]2 | [GB]6 [FA]2 | %6
 [EG]4 [^DF]4 | [EG]8 | [FA]4 [FA]2 [FA]2 | [GB]4 [GB]4 | [Fc]4 [GB]4 | [FA]8 | [DG]4 [DG]2 [DG]2 | %13
 [DF]4 [DG]4 | [EA]4 (G2 F2) | [DG]8 |] %16
V:2
 x8 | x8 | x4 D4 | x8 | x8 | x8 | x8 | x8 | x8 | x8 | x8 | x8 | x8 | x8 | x4 D4 | x8 |] %16
V:3
 [G,B,]4 [G,B,]2 [G,B,]2 | A,4 (B,2 D2) | [C,C]4 (B,2 A,2) | [G,B,]8 | [E,B,]4 [E,B,]2 [E,E]2 | %5
 B,6 [A,C]2 | B,4 [B,,B,]4 | [E,B,]8 | [D,D]4 [D,D]2 [D,D]2 | [G,C]4 [G,C]4 | [A,D]4 [G,D]4 | %11
 [D,D]8 | [G,B,]4 [G,B,]2 [G,B,]2 | A,4 B,2 D2 | [C,C]4 (B,2 A,2) | [G,B,]8 |] %16
V:4
 x8 | (D,2 C,2) B,,4 | x4 D,4 | x8 | x8 | (E,3 F, G,2) x2 | B,4 x4 | x8 | x8 | x8 | x8 | x8 | x8 | %13
 D,2 C,2 B,,4 | x4 D,4 | x8 |] %16

